src/assets/duotone/HuobiToken.svg

<svg width="24" height="24" viewBox="0 0 24 24"  xmlns="http://www.w3.org/2000/svg">
<path opacity="0.4" d="M16.1599 10C16.1599 10 16.0099 11 12.9099 15C9.99991 18.77 14.2099 21.64 14.7099 21.97C14.7399 21.99 14.7699 21.99 14.8099 21.97C15.4899 21.55 23.0599 16.68 16.1599 10Z" />
<path d="M13.7598 7.79006C13.7598 5.49006 12.8598 3.39006 11.9598 2.19006C11.6598 1.89006 11.1598 1.99006 11.0598 2.39006C10.6598 3.89006 9.45977 7.09006 6.55977 10.8901C2.85977 15.6901 6.25977 20.8901 9.75977 21.8901C11.6598 22.3901 9.25977 20.8901 8.95977 17.7901C8.65977 13.8901 13.7598 10.9901 13.7598 7.79006Z" />
</svg>

<?xml version="1.0" encoding="UTF-8"?>
<svg width="24" height="24" viewBox="0 0 24 24" xmlns="http://www.w3.org/2000/svg">
 <path d="m16.16 10s-0.15 1-3.25 5c-2.91 3.77 1.3 6.64 1.8 6.97 0.03 0.02 0.06 0.02 0.1 0 0.68-0.42 8.25-5.29 1.35-11.97z" opacity=".4"/>
 <path d="m13.76 7.7901c0-2.3-0.9-4.4-1.8-5.6-0.3-0.3-0.8-0.2-0.9 0.2-0.4 1.5-1.6 4.7-4.5 8.5-3.7 4.8-0.3 10 3.2 11 1.9 0.5-0.5-1-0.8-4.1-0.3-3.9 4.8-6.8 4.8-10z"/>
</svg>
